X: 22
T: JOHN FINLAYSON'S JIG
C: Andrew Rankine
R: jig
B: "The Complete Andrew Rankine Collection of Scottish Country Dance Tunes" p.27
Z: 2017 John Chambers <jc:trillian.mit.edu>
M: 6/8
L: 1/8
K: D
B |\
"D"ABA fed | A3- A2B | ABA "Ddim"BAB | "A7"c3- c3 | ABA gfe |\
B3- B2d | cBc [1 AE^E | "D"F3- F2 :|[2 ABc | "D"d3- d2 |]
|: B |\
"D"AD^E FA^G | A3- A2B | A^GA "Ddim"de=c | "A7"c3- c3 | efg gae |\
g3- g2f | edd [1 cE^E | "D"F3- F2 :|[2 cBc | d3- d2 |]
